X:46
T:Up and Away
Z: id:dc-polka-38
M:2/4
L:1/8
K:G Major
G/A/B/c/|d2 B2|B/A/B/c/ B2|A>B A/F/D/F/|AG G/A/B/c/|!
d2 B2|B/A/B/c/ B2|A>B A/F/D/F/|AG:|!
G/B/d/g/|b/a/g/f/ a/g/f/e/|dB B/A/B/c/|dA A/F/D/F/|AG G/B/d/g/|!
b/a/g/f/ a/g/f/e/|dB B/A/B/c/|dA A/F/D/F/|AG:|!

